!!!COM: Palestrina, Giovanni Perluigi da
!!!OPR: Missa Eripe me de inimicis
!!!OMD: Credo
!!!OTL: Crucifixus
**kern	**kern	**kern	**kern
*Ibass	*Itenor	*Icalto	*Icant
!Bassus	!Tenor	!Altus	!Cantus
*clefF4	*clefGv2	*clefG2	*clefG2
*k[]	*k[]	*k[]	*k[]
*D:dor	*D:dor	*D:dor	*D:dor
*M4/2	*M4/2	*M4/2	*M4/2
=78	=78	=78	=78
0r	1A	0r	0r
.	2e	.	.
.	[2e	.	.
=79	=79	=79	=79
0r	2e]	0r	1r
.	4d	.	.
.	4c	.	.
.	1f	.	1a
=80	=80	=80	=80
0r	2e	0r	2ee
.	2a	.	1ee
.	2g	.	.
.	[2f	.	4dd
.	.	.	4cc
=81	=81	=81	=81
0r	4f]	1d	1ff
.	4e	.	.
.	2.d	.	.
.	.	2a	2ee
.	4c	.	.
.	2c	[2a	2ee
=82	=82	=82	=82
0r	2A	2a]	2cc
.	2B-	4g	2dd
.	.	4f	.
.	2G	1b-	2dd
.	2g	.	[2ee
=83	=83	=83	=83
1D	2f	0a	4ee]
.	.	.	4dd
.	1f	.	1dd
2A	.	.	.
[2A	4e	.	[2cc
.	4d	.	.
=84	=84	=84	=84
2A]	2.e	1.a	2cc]
4G	.	.	4b-
4F	4f	.	4a
1B-	1d	.	[1dd
.	.	2g	.
=85	=85	=85	=85
1A	2a	2f	2dd]
.	1a	2e	2cc
2r	.	4d	[1ff
.	.	4e	.
[2d	2f	4f	.
.	.	4g	.
=86	=86	=86	=86
2d]	2d	4a	2ff]
.	.	4b	.
2c	1e	2.cc	2ee
2A	.	.	2cc
.	.	4b	.
2A	[2f	[2a	2cc
=87	=87	=87	=87
1B-	2f]	2a]	1.dd
.	4e	2g	.
.	4d	.	.
[1A	2f	1a	.
.	2e	.	2cc#
=88	=88	=88	=88
1A]	2r	2r	2r
.	2A	2a	2cc#
1r	2B	2g	2dd
.	2c#	2e	2ee
=89	=89	=89	=89
0r	2d	2f	4a
.	.	.	4b
.	4A	2.e	4cc
.	4B	.	4dd
.	4c	.	1ee
.	4d	4f	.
.	4e	4g	.
.	4f	4a	.
=90	=90	=90	=90
1r	2g	4b-	2dd
.	.	4g	.
.	2.a	2.cc	2.ff
1F	.	.	.
.	4g	4b-	4ee
.	2f	2a	[2dd
=91	=91	=91	=91
2G	1e	2b-	2dd]
2A	.	2a	2cc
4D	1d	[1a	1ff
4E	.	.	.
4F	.	.	.
4G	.	.	.
=92	=92	=92	=92
4A	2r	1a]	1ee
4B	.	.	.
4c	2c	.	.
4A	.	.	.
2B	2d	2r	1r
[2c	2e	2g	.
=93	=93	=93	=93
4c]	4A	2.a	1r
4B	4B	.	.
2.A	4c	.	.
.	4d	4b	.
.	2e	2cc	2r
4G	.	.	.
4F	2f	[2a	2cc
4E	.	.	.
=94	=94	=94	=94
2D	2f	2a]	2dd
2C	4e	2.cc	2ee
.	4d	.	.
1F	2.c	.	4a
.	.	4b	4b
.	.	[2a	4cc
.	8B	.	4dd
.	8A	.	.
=95	=95	=95	=95
[0E	2c	2a]	1ee
.	2B	4g#	.
.	.	4f#	.
.	2r	2g#	2b
.	[2e	[2a	2cc
=96	=96	=96	=96
1E]	2e]	2a]	2b
.	2e	2g#	1ee
[1A	2.c	1a	.
.	.	.	2ee
.	4B	.	.
=97	=97	=97	=97
2A]	2A	2r	1cc
2A	2e	1a	.
1F	[1f	.	2a
.	.	2a	2cc
=98	=98	=98	=98
1D	2f]	1f	2b-
.	4e	.	1a
.	4d	.	.
[1A	2c	1e	.
.	4B	.	4g
.	4A	.	4f
=99	=99	=99	=99
1A]	2c#	2a	2e
.	1d	2a	2d
1A	.	1a	1e
.	2c#	.	.
=100	=100	=100	=100
0D	0d	2r	1d
.	.	2f	.
.	.	2a	2r
.	.	2f	2a
=101	=101	=101	=101
0r	0r	2.a	2cc
.	.	.	2a
.	.	4g	.
.	.	2f	2.cc
.	.	2e	.
.	.	.	4b
=102	=102	=102	=102
2r	0r	2f	2a
2A	.	2f	2a
2c	.	2e	2g
2A	.	[2a	[2cc
=103	=103	=103	=103
2.c	1r	2a]	4cc]
.	.	.	4dd
.	.	2g	2.ee
4B	.	.	.
2A	2r	2cc	.
.	.	.	4dd
2A	2c	2a	2cc
=104	=104	=104	=104
2G#	2e	2b	2b
2A	2c	2cc	1a
1E	2.e	1b	.
.	.	.	2g#
.	4d	.	.
=105	=105	=105	=105
1A	2c	1e	1a
.	2c	.	.
2B-	2d	2r	1r
2G	[2e	2g	.
=106	=106	=106	=106
1B-	4e]	2f	1r
.	4d	.	.
.	1d	2d	.
1A	.	2f	2r
.	2c#	2e	2ee
=107	=107	=107	=107
0D	1d	4d	2ff
.	.	4e	.
.	.	4f	2dd
.	.	4g	.
.	2r	1a	1ff
.	2d	.	.
=108	=108	=108	=108
0r	2c	2r	4ee
.	.	.	4dd
.	2A	2cc	4ee
.	.	.	4ff
.	2.e	2b	2.gg
.	.	2g	.
.	4d	.	4ff
=109	=109	=109	=109
0r	4e	2cc	2ee
.	4f	.	.
.	2g	2.b	2dd
.	2a	.	2cc
.	.	4a	.
.	2d	[2a	2dd
=110	=110	=110	=110
1r	1e	2a]	1b
.	.	2g#	.
2r	1A	1a	2.cc
2A	.	.	.
.	.	.	4b
=111	=111	=111	=111
2F	2r	2r	0a
2D	2d	2f	.
2.A	2c	2e	.
.	2A	2c	.
4G	.	.	.
=112	=112	=112	=112
4A	2.a	2.cc	0r
4B	.	.	.
2c	.	.	.
.	4g	4b-	.
2d	2f	2a	.
2G	[2e	2g	.
=113	=113	=113	=113
0A	2e]	2f	1r
.	1d	4e	.
.	.	4d	.
.	.	1e	2r
.	2c#	.	2ee
=114	=114	=114	=114
0r	2r	1f	2cc
.	2d	.	2a
.	2c	1e	4cc
.	.	.	4b
.	2A	.	4cc
.	.	.	4dd
=115	=115	=115	=115
1r	4c	2r	2ee
.	4B	.	.
.	4c	2a	2cc
.	4d	.	.
2r	2e	2g	2b
2A	2c	2e	2a
=116	=116	=116	=116
2G	2d	2g	1b
2E	2e	2g	.
4F	2.A	2a	1a
4E	.	.	.
4F	.	2f	.
4G	4B	.	.
=117	=117	=117	=117
2A	2c	2e	2r
2F	2d	1d	2a
2G	1e	.	2g
2A	.	2c#	2e
=118	=118	=118	=118
4D	2r	1d	4f
4E	.	.	4g
4F	2d	.	4a
4G	.	.	4b
1A	2c	2r	4cc
.	.	.	4b
.	2A	2a	4cc
.	.	.	4dd
=119	=119	=119	=119
0r	4c	2g	2ee
.	4B	.	.
.	4c	2e	2cc
.	4d	.	.
.	2e	2g	2b
.	2c	2a	[2a
=120	=120	=120	=120
1r	2d	2b	4a]
.	.	.	8g
.	.	.	8f#
.	2e	2b	2g#
2r	1A	2cc	1a
2A	.	2cc	.
=121	=121	=121	=121
2G	2r	2b	0r
2E	2e	2g	.
4F	2c	2.a	.
4E	.	.	.
4F	2A	.	.
4G	.	8g	.
.	.	8f	.
=122	=122	=122	=122
2A	2c	2e	0r
2F	2d	1d	.
2G	1e	.	.
2A	.	2c#	.
=123	=123	=123	=123
1D	0f	1d	2r
.	.	.	2dd
2r	.	1a	2cc
2d	.	.	2a
=124	=124	=124	=124
2c	2e	2r	4cc
.	.	.	4b
2A	2a	2cc	4cc
.	.	.	4dd
4c	2g	2cc	[1ee
4B	.	.	.
4c	2e	2cc	.
4d	.	.	.
=125	=125	=125	=125
2e	2g	2b	2ee]
2c	1a	2a	2ee
2d	.	1b	2dd
2e	2g#	.	4cc
.	.	.	4b
=126	=126	=126	=126
1A	2a	2r	1cc#
.	2e	1a	.
1d	1f#	.	2r
.	.	2a	[2dd
=127	=127	=127	=127
1G	1g	0b-	2dd]
.	.	.	2dd
1B-	2.d	.	1dd
.	4e	.	.
=128	=128	=128	=128
0F	2f	1a	2.cc
.	1c	.	.
.	.	.	4b-
.	.	2r	1a
.	2d	2f	.
=129	=129	=129	=129
0r	2e	2g	1cc
.	1f	2.a	.
.	.	.	2dd
.	.	4b	.
.	2e	2cc	2ee
=130	=130	=130	=130
0r	1d	2r	1.ff
.	.	2f	.
.	1c	2g	.
.	.	2a	2ee
=131	=131	=131	=131
2r	1r	2b-	2dd
2F	.	2a	2cc
2G	2r	2g	2b-
2A	2c	[2f	[2a
=132	=132	=132	=132
1B-	1d	2f]	2a]
.	.	4e	2g
.	.	4d	.
1A	2e	4c	2a
.	.	4A	.
.	[2f	[2a	2cc
=133	=133	=133	=133
0r	2f]	2a]	2dd
.	2e	2g	2ee
.	1d	2r	[1ff
.	.	2f	.
=134	=134	=134	=134
0r	2r	2g	2ff]
.	2c	2a	2ee
.	2d	2b-	2dd
.	2e	2g	[2cc
=135	=135	=135	=135
1F	2.f	1a	2cc]
.	.	.	4b-
.	4e	.	4a
2G	2d	2g	2b-
2A	2c	[2f	2a
=136	=136	=136	=136
0B-	1f	2f]	0dd
.	.	4e	.
.	.	4d	.
.	1d	2f	.
.	.	2g	.
=137	=137	=137	=137
[0A	[0e	[0a	[0cc#
=138	=138	=138	=138
0A]	0e]	0a]	0cc#]
*-	*-	*-	*-
!!!CDT: 1525/^1526/-1594/2/2
!!!OCY: Italia
!!!AGN: Mass (Parody)
!!!AST: renaissance, vocal
!!!ASW: Motet 1559 (Maillard)
!!!PWK: Masses, Book 4
!!!RNB: Cadence finals: A
!!!YOR: Le Opere Complete, v. 10, p. 79
!!!YOO: Rome, Italy: Fratelli Scalera
!!!END: 1992//
!!!EED: John Miller
!!!YEC: Copyright 2000, John Miller
!!!YEN: United States of America
!!!YEM: Rights to all derivative electronic formats reserved.
!!!YEM: Refer to licensing agreement for further details.
!!!YEM: This file must be accompanied by the licensing agreement.
!!!YEM: A copy of the licensing agreement may be found at http://www.music-cog.ohio-state.edu/HumdrumDatabases/Palestrina/license.txt
!!!EMD: converted to Humdrum by Bret Aarden
